src/icons/js.svg

<?xml version="1.0" encoding="UTF-8"?>
<svg xmlns="http://www.w3.org/2000/svg" xmlns:xlink="http://www.w3.org/1999/xlink" width="23.040001" height="32" viewBox="0 0 23.040001 32" version="1.1">
<defs>
<linearGradient id="linear0" gradientUnits="userSpaceOnUse" x1="36" y1="97" x2="36" y2="-1" gradientTransform="matrix(1,0,0,1,0,2)">
<stop offset="0" style="stop-color:rgb(78.431374%,83.137256%,85.882354%);stop-opacity:1;"/>
<stop offset="0.139" style="stop-color:rgb(84.705883%,88.235295%,90.196079%);stop-opacity:1;"/>
<stop offset="0.359" style="stop-color:rgb(92.156863%,94.117647%,95.294118%);stop-opacity:1;"/>
<stop offset="0.617" style="stop-color:rgb(97.647059%,98.039216%,98.431373%);stop-opacity:1;"/>
<stop offset="1" style="stop-color:rgb(100%,100%,100%);stop-opacity:1;"/>
</linearGradient>
<filter id="alpha" filterUnits="objectBoundingBox" x="0%" y="0%" width="100%" height="100%">
  <feColorMatrix type="matrix" in="SourceGraphic" values="0 0 0 0 1 0 0 0 0 1 0 0 0 0 1 0 0 0 1 0"/>
</filter>
<image id="image14" width="24" height="32" xlink:href="data:image/png;base64,iVBORw0KGgoAAAANSUhEUgAAABgAAAAgCAYAAAAIXrg4AAAABmJLR0QA/wD/AP+gvaeTAAAAUUlEQVRIiWNgGAXDHjCi8Y0ZGBh4KTTzHAMDwydcFhxlYGDQpdACdwYGhuMwDhOFhhEEoxaMWjBqwagFg8ECFjT+HyimBPyjUP8oGAWjYOQBABPqBxepawreAAAAAElFTkSuQmCC"/>
<mask id="mask0">
  <g filter="url(#alpha)">
<use xlink:href="#image14"/>
  </g>
</mask>
<linearGradient id="linear1" gradientUnits="userSpaceOnUse" x1="21.450001" y1="61.549999" x2="21.450001" y2="21.950001" gradientTransform="matrix(0.32,0,0,0.32,0,0)">
<stop offset="0" style="stop-color:rgb(67.843139%,80.000001%,86.274511%);stop-opacity:1;"/>
<stop offset="1" style="stop-color:rgb(29.803923%,42.352942%,48.235294%);stop-opacity:1;"/>
</linearGradient>
<linearGradient id="linear2" gradientUnits="userSpaceOnUse" x1="51.700001" y1="61.450001" x2="51.700001" y2="21.950001" gradientTransform="matrix(0.32,0,0,0.32,0,0)">
<stop offset="0" style="stop-color:rgb(67.843139%,80.000001%,86.274511%);stop-opacity:1;"/>
<stop offset="1" style="stop-color:rgb(29.803923%,42.352942%,48.235294%);stop-opacity:1;"/>
</linearGradient>
<clipPath id="clip2">
  <rect x="0" y="0" width="24" height="32"/>
</clipPath>
<g id="surface13" clip-path="url(#clip2)">
<path style=" stroke:none;fill-rule:nonzero;fill:url(#linear1);" d="M 4.609375 14.113281 L 4.609375 12.542969 C 4.929688 12.511719 5.183594 12.480469 5.34375 12.382812 C 5.503906 12.320312 5.632812 12.160156 5.761719 12 C 5.886719 11.808594 5.953125 11.585938 6.015625 11.296875 C 6.046875 11.070312 6.078125 10.71875 6.078125 10.207031 C 6.078125 9.34375 6.113281 8.769531 6.207031 8.414062 C 6.273438 8.097656 6.433594 7.808594 6.625 7.617188 C 6.816406 7.425781 7.136719 7.265625 7.519531 7.136719 C 7.777344 7.070312 8.191406 7.007812 8.769531 7.007812 L 9.121094 7.007812 L 9.121094 8.574219 C 8.640625 8.574219 8.320312 8.609375 8.191406 8.671875 C 8.0625 8.730469 7.953125 8.816406 7.871094 8.929688 C 7.808594 9.023438 7.777344 9.214844 7.777344 9.503906 C 7.777344 9.792969 7.742188 10.304688 7.710938 11.070312 C 7.679688 11.519531 7.648438 11.871094 7.550781 12.160156 C 7.457031 12.414062 7.328125 12.640625 7.199219 12.832031 C 7.070312 12.992188 6.847656 13.183594 6.558594 13.375 C 6.816406 13.535156 7.039062 13.695312 7.199219 13.886719 C 7.359375 14.078125 7.488281 14.335938 7.585938 14.625 C 7.679688 14.910156 7.742188 15.296875 7.742188 15.777344 C 7.777344 16.511719 7.777344 16.960938 7.777344 17.183594 C 7.777344 17.472656 7.808594 17.664062 7.871094 17.792969 C 7.9375 17.921875 8.0625 17.984375 8.191406 18.046875 C 8.320312 18.113281 8.640625 18.144531 9.121094 18.144531 L 9.121094 19.710938 L 8.769531 19.710938 C 8.191406 19.710938 7.710938 19.679688 7.425781 19.585938 C 7.121094 19.496094 6.847656 19.332031 6.625 19.105469 C 6.398438 18.878906 6.273438 18.625 6.175781 18.304688 C 6.113281 17.984375 6.078125 17.472656 6.078125 16.769531 C 6.078125 15.96875 6.046875 15.425781 5.984375 15.199219 C 5.886719 14.847656 5.726562 14.59375 5.535156 14.433594 C 5.3125 14.238281 5.023438 14.113281 4.609375 14.113281 M 4.609375 14.113281 "/>
<path style=" stroke:none;fill-rule:nonzero;fill:url(#linear2);" d="M 18.785156 14.113281 C 18.464844 14.144531 18.207031 14.175781 18.046875 14.273438 C 17.886719 14.335938 17.761719 14.496094 17.632812 14.65625 C 17.503906 14.847656 17.441406 15.070312 17.375 15.359375 C 17.328125 15.71875 17.308594 16.085938 17.3125 16.449219 C 17.3125 17.3125 17.28125 17.886719 17.183594 18.238281 C 17.132812 18.542969 16.988281 18.824219 16.769531 19.039062 C 16.574219 19.230469 16.257812 19.390625 15.871094 19.519531 C 15.617188 19.585938 15.199219 19.648438 14.625 19.648438 L 14.273438 19.648438 L 14.273438 18.078125 C 14.753906 18.078125 15.039062 18.046875 15.199219 17.984375 C 15.332031 17.933594 15.441406 17.84375 15.519531 17.726562 C 15.585938 17.632812 15.617188 17.441406 15.617188 17.152344 C 15.617188 16.894531 15.648438 16.382812 15.679688 15.617188 C 15.710938 15.167969 15.777344 14.785156 15.871094 14.527344 C 15.96875 14.238281 16.097656 14.015625 16.257812 13.824219 C 16.429688 13.621094 16.632812 13.449219 16.863281 13.3125 C 16.542969 13.089844 16.289062 12.894531 16.160156 12.703125 C 15.945312 12.375 15.804688 12.003906 15.742188 11.617188 C 15.679688 11.296875 15.648438 10.625 15.648438 9.601562 C 15.648438 9.28125 15.617188 9.054688 15.550781 8.929688 C 15.480469 8.820312 15.382812 8.730469 15.265625 8.671875 C 15.136719 8.609375 14.816406 8.574219 14.304688 8.574219 L 14.304688 7.039062 L 14.65625 7.039062 C 15.230469 7.039062 15.710938 7.070312 16 7.167969 C 16.300781 7.261719 16.578125 7.425781 16.800781 7.648438 C 17.023438 7.871094 17.152344 8.128906 17.246094 8.449219 C 17.3125 8.769531 17.375 9.28125 17.375 9.984375 C 17.375 10.785156 17.40625 11.296875 17.472656 11.550781 C 17.566406 11.902344 17.726562 12.160156 17.921875 12.289062 C 18.113281 12.449219 18.433594 12.511719 18.816406 12.542969 Z M 18.785156 14.113281 "/>
</g>
<clipPath id="clip1">
  <rect x="0" y="0" width="24" height="32"/>
</clipPath>
<g id="surface16" clip-path="url(#clip1)">
<use xlink:href="#surface13" mask="url(#mask0)"/>
</g>
<linearGradient id="linear3" gradientUnits="userSpaceOnUse" x1="45.036999" y1="25.813" x2="58.536999" y2="12.313" gradientTransform="matrix(1,0,0,1,0,2)">
<stop offset="0" style="stop-color:rgb(100%,100%,100%);stop-opacity:1;"/>
<stop offset="0.35" style="stop-color:rgb(98.039216%,98.431373%,98.431373%);stop-opacity:1;"/>
<stop offset="0.532" style="stop-color:rgb(92.941177%,94.509804%,95.686275%);stop-opacity:1;"/>
<stop offset="0.675" style="stop-color:rgb(86.666667%,89.803922%,91.37255%);stop-opacity:1;"/>
<stop offset="0.799" style="stop-color:rgb(78.039217%,82.745099%,85.490197%);stop-opacity:1;"/>
<stop offset="0.908" style="stop-color:rgb(67.843139%,74.117649%,78.039217%);stop-opacity:1;"/>
<stop offset="1" style="stop-color:rgb(57.254905%,64.705884%,69.01961%);stop-opacity:1;"/>
</linearGradient>
</defs>
<g id="surface1">
<path style="fill-rule:nonzero;fill:url(#linear0);stroke-width:2;stroke-linecap:butt;stroke-linejoin:miter;stroke:rgb(44.313726%,56.862748%,63.137257%);stroke-opacity:1;stroke-miterlimit:4;" d="M 44.995118 1.000977 L 71.997072 27.697755 L 71.997072 98.999026 L 0 98.999026 L 0 1.000977 Z M 44.995118 1.000977 " transform="matrix(0.32,0,0,0.32,0,0)"/>
<use xlink:href="#surface16"/>
<path style="fill-rule:nonzero;fill:url(#linear3);stroke-width:2;stroke-linecap:butt;stroke-linejoin:bevel;stroke:rgb(44.313726%,56.862748%,63.137257%);stroke-opacity:1;stroke-miterlimit:4;" d="M 44.995118 1.000977 L 71.997072 27.697755 L 44.995118 27.697755 Z M 44.995118 1.000977 " transform="matrix(0.32,0,0,0.32,0,0)"/>
<path style=" stroke:none;fill-rule:nonzero;fill:rgb(29.803923%,42.352942%,48.235294%);fill-opacity:1;" d="M 8.992188 22.878906 L 10.273438 22.878906 L 10.273438 26.945312 C 10.273438 27.488281 10.238281 27.871094 10.144531 28.160156 C 10.027344 28.523438 9.789062 28.839844 9.472656 29.054688 C 9.152344 29.28125 8.703125 29.40625 8.160156 29.40625 C 7.519531 29.40625 7.039062 29.214844 6.6875 28.863281 C 6.335938 28.511719 6.175781 28 6.175781 27.296875 L 7.390625 27.167969 C 7.390625 27.519531 7.457031 27.808594 7.550781 27.9375 C 7.679688 28.160156 7.902344 28.289062 8.191406 28.289062 C 8.480469 28.289062 8.671875 28.191406 8.800781 28.03125 C 8.929688 27.871094 8.992188 27.519531 8.992188 27.007812 Z M 11.359375 27.199219 L 12.609375 27.070312 C 12.671875 27.488281 12.832031 27.808594 13.054688 28 C 13.28125 28.191406 13.601562 28.289062 13.984375 28.289062 C 14.398438 28.289062 14.71875 28.191406 14.910156 28.03125 C 15.136719 27.839844 15.230469 27.648438 15.230469 27.425781 C 15.230469 27.265625 15.199219 27.136719 15.105469 27.039062 C 14.960938 26.917969 14.800781 26.820312 14.625 26.753906 C 14.464844 26.6875 14.113281 26.59375 13.601562 26.464844 C 12.894531 26.304688 12.414062 26.078125 12.128906 25.824219 C 11.742188 25.472656 11.550781 25.054688 11.550781 24.542969 C 11.550781 24.222656 11.648438 23.902344 11.839844 23.617188 C 12.03125 23.328125 12.289062 23.105469 12.640625 22.976562 C 12.992188 22.816406 13.40625 22.753906 13.886719 22.753906 C 14.6875 22.753906 15.296875 22.945312 15.710938 23.296875 C 16.128906 23.648438 16.320312 24.128906 16.351562 24.703125 L 15.070312 24.769531 C 15.007812 24.449219 14.910156 24.191406 14.71875 24.0625 C 14.527344 23.902344 14.273438 23.839844 13.886719 23.839844 C 13.503906 23.839844 13.214844 23.902344 12.992188 24.0625 C 12.867188 24.152344 12.796875 24.296875 12.800781 24.449219 C 12.800781 24.609375 12.863281 24.734375 12.992188 24.832031 C 13.152344 24.960938 13.566406 25.121094 14.175781 25.246094 C 14.785156 25.375 15.265625 25.535156 15.585938 25.695312 C 15.902344 25.855469 16.128906 26.078125 16.289062 26.335938 C 16.449219 26.59375 16.542969 26.945312 16.542969 27.359375 C 16.542969 27.710938 16.449219 28.0625 16.222656 28.382812 C 16.03125 28.703125 15.742188 28.929688 15.359375 29.089844 C 14.976562 29.246094 14.527344 29.3125 13.953125 29.3125 C 13.152344 29.3125 12.511719 29.121094 12.097656 28.734375 C 11.679688 28.480469 11.425781 27.9375 11.359375 27.199219 M 11.359375 27.199219 "/>
</g>
</svg>

<svg xmlns:xlink="http://www.w3.org/1999/xlink" role="img" viewBox="0 0 23.04 32" xmlns="http://www.w3.org/2000/svg"><defs><linearGradient gradientTransform="translate(0 2)" gradientUnits="userSpaceOnUse" id="e" x1="36" x2="36" y1="97" y2="-1"><stop offset="0" style="stop-color:rgb(78.431374%,83.137256%,85.882354%);stop-opacity:1"/><stop offset=".139" style="stop-color:rgb(84.705883%,88.235295%,90.196079%);stop-opacity:1"/><stop offset=".359" style="stop-color:rgb(92.156863%,94.117647%,95.294118%);stop-opacity:1"/><stop offset=".617" style="stop-color:rgb(97.647059%,98.039216%,98.431373%);stop-opacity:1"/><stop offset="1" style="stop-color:rgb(100%,100%,100%);stop-opacity:1"/></linearGradient><linearGradient gradientTransform="scale(.32)" gradientUnits="userSpaceOnUse" id="c" x1="21.45" x2="21.45" y1="61.55" y2="21.95"><stop offset="0" style="stop-color:rgb(67.843139%,80.000001%,86.274511%);stop-opacity:1"/><stop offset="1" style="stop-color:rgb(29.803923%,42.352942%,48.235294%);stop-opacity:1"/></linearGradient><linearGradient gradientTransform="scale(.32)" gradientUnits="userSpaceOnUse" id="d" x1="51.7" x2="51.7" y1="61.45" y2="21.95"><stop offset="0" style="stop-color:rgb(67.843139%,80.000001%,86.274511%);stop-opacity:1"/><stop offset="1" style="stop-color:rgb(29.803923%,42.352942%,48.235294%);stop-opacity:1"/></linearGradient><linearGradient gradientTransform="translate(0 2)" gradientUnits="userSpaceOnUse" id="h" x1="45.037" x2="58.537" y1="25.813" y2="12.313"><stop offset="0" style="stop-color:rgb(100%,100%,100%);stop-opacity:1"/><stop offset=".35" style="stop-color:rgb(98.039216%,98.431373%,98.431373%);stop-opacity:1"/><stop offset=".532" style="stop-color:rgb(92.941177%,94.509804%,95.686275%);stop-opacity:1"/><stop offset=".675" style="stop-color:rgb(86.666667%,89.803922%,91.37255%);stop-opacity:1"/><stop offset=".799" style="stop-color:rgb(78.039217%,82.745099%,85.490197%);stop-opacity:1"/><stop offset=".908" style="stop-color:rgb(67.843139%,74.117649%,78.039217%);stop-opacity:1"/><stop offset="1" style="stop-color:rgb(57.254905%,64.705884%,69.01961%);stop-opacity:1"/></linearGradient><clipPath id="b"><path d="M0 0h24v32H0z"/></clipPath><filter filterUnits="objectBoundingBox" height="100%" id="a" width="100%" x="0%" y="0%"><feColorMatrix in="SourceGraphic" values="0 0 0 0 1 0 0 0 0 1 0 0 0 0 1 0 0 0 1 0"/></filter><mask id="g"><g filter="url(#a)"><path d="M0 0h23.04v32H0z" style="fill:rgb(0%,0%,0%);fill-opacity:0.95;stroke:none"/></g></mask><g clip-path="url(#b)" id="f"><path d="M4.61 14.113v-1.57c.32-.031.574-.063.734-.16.16-.063.289-.223.418-.383.125-.191.191-.414.254-.703.03-.227.062-.578.062-1.09 0-.863.035-1.437.129-1.793.066-.316.227-.605.418-.797.191-.191.512-.351.895-.48.257-.067.671-.13 1.25-.13h.351v1.567c-.48 0-.8.035-.93.098a.803.803 0 0 0-.32.258c-.062.093-.094.285-.094.574s-.035.8-.066 1.566c-.031.45-.063.801-.16 1.09-.094.254-.223.48-.352.672-.129.16-.351.352-.64.543.257.16.48.32.64.512.16.191.29.449.387.738.094.285.156.672.156 1.152.035.735.035 1.184.035 1.407 0 .289.032.48.094.609.066.129.191.191.32.254.13.066.45.098.93.098v1.566H8.77c-.579 0-1.06-.031-1.344-.125a1.876 1.876 0 0 1-.801-.48c-.227-.227-.352-.481-.45-.801-.062-.32-.097-.832-.097-1.535 0-.801-.031-1.344-.094-1.57-.097-.352-.257-.606-.449-.766-.223-.196-.512-.32-.926-.32m0 0" style="stroke:none;fill-rule:nonzero;fill:url(#c)"/><path d="M18.785 14.113c-.32.032-.578.063-.738.16-.16.063-.285.223-.414.383-.13.192-.192.414-.258.703a8.052 8.052 0 0 0-.062 1.09c0 .863-.032 1.438-.13 1.79a1.452 1.452 0 0 1-.413.8c-.196.191-.512.352-.899.48-.254.067-.672.13-1.246.13h-.352v-1.57c.48 0 .766-.032.926-.095a.647.647 0 0 0 .32-.257c.067-.094.098-.286.098-.575 0-.257.031-.77.063-1.535.03-.449.097-.832.191-1.09.098-.289.227-.511.387-.703a2.42 2.42 0 0 1 .605-.511c-.32-.223-.574-.418-.703-.61a2.818 2.818 0 0 1-.418-1.086c-.062-.32-.094-.992-.094-2.015 0-.32-.03-.547-.097-.672a.736.736 0 0 0-.285-.258c-.13-.063-.45-.098-.961-.098V7.04h.351c.574 0 1.055.031 1.344.129a1.9 1.9 0 0 1 .8.48c.223.223.352.48.446.801.067.32.129.832.129 1.535 0 .801.031 1.313.098 1.567.093.351.254.61.449.738.191.16.512.223.894.254Zm0 0" style="stroke:none;fill-rule:nonzero;fill:url(#d)"/></g></defs><path d="m44.995 1.001 27.002 26.697v71.301H0V1.001Zm0 0" style="fill-rule:nonzero;fill:url(#e);stroke-width:2;stroke-linecap:butt;stroke-linejoin:miter;stroke:rgb(44.313726%,56.862748%,63.137257%);stroke-opacity:1;stroke-miterlimit:4" transform="scale(.32)"/><use xlink:href="#f" mask="url(#g)"/><path d="m44.995 1.001 27.002 26.697H44.995Zm0 0" style="fill-rule:nonzero;fill:url(#h);stroke-width:2;stroke-linecap:butt;stroke-linejoin:bevel;stroke:rgb(44.313726%,56.862748%,63.137257%);stroke-opacity:1;stroke-miterlimit:4" transform="scale(.32)"/><path d="M8.992 22.879h1.281v4.066c0 .543-.035.926-.128 1.215a1.72 1.72 0 0 1-.672.895c-.32.226-.77.351-1.313.351-.64 0-1.12-.191-1.473-.543-.351-.351-.511-.863-.511-1.566l1.215-.129c0 .352.066.64.16.77.129.222.351.351.64.351.29 0 .48-.098.61-.258.129-.16.191-.511.191-1.023Zm2.367 4.32 1.25-.129c.063.418.223.739.446.93.226.191.547.29.93.29.413 0 .734-.099.925-.259.227-.191.32-.383.32-.605 0-.16-.03-.29-.125-.387a1.61 1.61 0 0 0-.48-.285c-.16-.067-.512-.16-1.023-.29-.707-.16-1.188-.386-1.473-.64-.387-.351-.578-.77-.578-1.281 0-.32.097-.64.289-.926.191-.289.45-.512.8-.64.352-.16.766-.223 1.247-.223.8 0 1.41.191 1.824.543.418.351.61.832.64 1.406l-1.28.067c-.063-.32-.16-.579-.352-.707-.192-.16-.446-.223-.832-.223-.383 0-.672.062-.895.223a.46.46 0 0 0-.191.386c0 .16.062.285.191.383.16.129.574.29 1.184.414.61.129 1.09.29 1.41.45.316.16.543.382.703.64.16.258.254.61.254 1.023 0 .352-.094.703-.32 1.024-.192.32-.48.547-.864.707-.382.156-.832.223-1.406.223-.8 0-1.441-.192-1.855-.579-.418-.254-.672-.797-.739-1.535m0 0" style="stroke:none;fill-rule:nonzero;fill:rgb(29.803923%,42.352942%,48.235294%);fill-opacity:1"/></svg>
